symbols/default/45n.svg

<svg xmlns="http://www.w3.org/2000/svg" fill="none" viewBox="0 0 100 100">
  <g clip-path="url(#a)">
    <path fill="url(#b)" fill-rule="evenodd" d="M28.443 13.565c0-3.869-1.116-7.514-2.902-10.638 9.666 1.234 17.247 8.91 18.378 18.607A29.67 29.67 0 0 0 33.9 30.4h-1.1c-4.9 0-9.4 2.3-12.1 6.2-4.058.243-7.853 1.673-11.01 4.128a21.853 21.853 0 0 1-5.275-6.111c.892.149 1.785.223 2.752.223 11.754 0 21.276-9.522 21.276-21.275Z" clip-rule="evenodd"/>
    <path fill="#999" fill-rule="evenodd" d="M81.3 42.9C79.4 31.6 69.4 23 57.7 23c-9.1 0-17.3 5.1-21.3 13.1-1.2-.5-2.4-.7-3.6-.7-4.2 0-7.8 2.5-9.2 6.2-.6-.1-1.1-.1-1.7-.1-4.1 0-7.9 1.6-10.7 4.5C8.5 48.8 7 52.4 7 56.2v.2c.1 4.1 1.7 7.8 4.6 10.5 2.7 2.7 6.4 4.2 10.3 4.2h55.7c7.9 0 14.4-6.4 14.4-14.3 0-6.6-4.5-12.3-10.7-13.9Z" clip-rule="evenodd"/>
    <path fill="url(#c)" fill-rule="evenodd" d="M81.3 42.9C79.4 31.6 69.4 23 57.7 23c-9.1 0-17.3 5.1-21.3 13.1-1.2-.5-2.4-.7-3.6-.7-4.2 0-7.8 2.5-9.2 6.2-.6-.1-1.1-.1-1.7-.1-4.1 0-7.9 1.6-10.7 4.5C8.5 48.8 7 52.4 7 56.2v.2c.1 4.1 1.7 7.8 4.6 10.5 2.7 2.7 6.4 4.2 10.3 4.2h55.7c7.9 0 14.4-6.4 14.4-14.3 0-6.6-4.5-12.3-10.7-13.9Z" clip-rule="evenodd" opacity=".6" style="mix-blend-mode:multiply"/>
    <g filter="url(#d)" opacity=".3" style="mix-blend-mode:multiply">
      <path fill="#B6B6B6" d="M29.5 64c1.787 0 24.848-1.272 26.48-2 2.23-.994-2.39-6.972 0-7.47 1.08-.224 2.667-.927 2.667-.927s4.352-1.602 5.103-1.602c.75 0 .374-2.964.14-4.81l-.14-1.32c0-.87-2.592-2.674-3-4.87-.284-1.527.424-3.585.276-3.968 0 0-.05-.029-.036-.032.014-.004.026.007.036.032.112.053.922.327.922.327 1.948.66 5.03 1.74 7.802 3.64 1.658 1.138 3.941 3.314 3.941 3.314s1.645 1.272 2.059 1.687c1 1 4 4 6 4h5L89 51.59l.5 3.21c0 7.9-6.5 14.3-14.4 14.3H18.5S23 64 29.5 64Z"/>
    </g>
    <path fill="#00B8F1" d="M54.7 83.5h-2.8l1.4-2.5c.4-.6.2-1.5-.5-1.8-.7-.4-1.5-.2-1.9.5l-1.4 2.4-1.4-2.4c-.4-.7-1.2-.9-1.8-.5-.4.2-.6.5-.7.8-.1.3 0 .7.1 1l1.4 2.4h-2.7c-.8.1-1.4.7-1.4 1.4s.6 1.4 1.4 1.4h2.8l-1.4 2.4c-.2.3-.2.7-.1 1 .1.3.3.6.6.8.6.4 1.5.1 1.8-.5l1.4-2.4 1.4 2.5c.2.4.7.7 1.2.7.2 0 .5-.1.7-.2.6-.4.9-1.2.5-1.8l-1.4-2.5h2.8c.7 0 1.4-.6 1.4-1.4 0-.8-.7-1.3-1.4-1.3ZM82.7 83.5h-2.8l1.4-2.5c.4-.6.2-1.5-.5-1.8-.7-.4-1.5-.2-1.9.5l-1.4 2.4-1.4-2.4c-.4-.7-1.2-.9-1.8-.5-.4.2-.6.5-.7.8-.1.3 0 .7.1 1l1.4 2.4h-2.7c-.8.1-1.4.7-1.4 1.4s.6 1.4 1.4 1.4h2.8l-1.4 2.4c-.2.3-.2.7-.1 1 .1.3.3.6.6.8.6.4 1.5.1 1.8-.5l1.4-2.4 1.4 2.5c.2.4.7.7 1.2.7.2 0 .5-.1.7-.2.6-.4.9-1.2.5-1.8l-1.4-2.5h2.8c.7 0 1.4-.6 1.4-1.4 0-.8-.7-1.3-1.4-1.3ZM68.7 92.5h-2.8l1.4-2.5c.4-.6.2-1.5-.5-1.8-.7-.4-1.5-.2-1.9.5l-1.4 2.4-1.4-2.4c-.4-.7-1.2-.9-1.8-.5-.4.2-.6.5-.7.8-.1.3 0 .7.1 1l1.4 2.4h-2.7c-.8.1-1.4.7-1.4 1.4s.6 1.4 1.4 1.4h2.8l-1.4 2.4c-.2.3-.2.7-.1 1 .1.3.3.6.6.8.6.4 1.5.1 1.8-.5l1.4-2.4 1.4 2.5c.2.4.7.7 1.2.7.2 0 .5-.1.7-.2.6-.4.9-1.2.5-1.8l-1.4-2.5h2.8c.7 0 1.4-.6 1.4-1.4 0-.8-.7-1.3-1.4-1.3ZM40.7 92.5h-2.8l1.4-2.5c.4-.6.2-1.5-.5-1.8-.7-.4-1.5-.2-1.9.5l-1.4 2.4-1.4-2.4c-.4-.7-1.2-.9-1.8-.5-.4.2-.6.5-.7.8-.1.3 0 .7.1 1l1.4 2.4h-2.7c-.8.1-1.4.7-1.4 1.4s.6 1.4 1.4 1.4h2.8l-1.4 2.4c-.2.3-.2.7-.1 1 .1.3.3.6.6.8.6.4 1.5.1 1.8-.5l1.4-2.4 1.4 2.5c.2.4.7.7 1.2.7.2 0 .5-.1.7-.2.6-.4.9-1.2.5-1.8l-1.4-2.5h2.8c.7 0 1.4-.6 1.4-1.4 0-.8-.7-1.3-1.4-1.3ZM26.7 83.5h-2.8l1.4-2.5c.4-.6.2-1.5-.5-1.8-.7-.4-1.5-.2-1.9.5l-1.4 2.4-1.4-2.4c-.4-.7-1.2-.9-1.8-.5-.4.2-.6.5-.7.8-.1.3 0 .7.1 1l1.4 2.4h-2.7c-.8.1-1.4.7-1.4 1.4s.6 1.4 1.4 1.4h2.8l-1.4 2.4c-.2.3-.2.7-.1 1 .1.3.3.6.6.8.6.4 1.5.1 1.8-.5l1.4-2.4 1.4 2.5c.2.4.7.7 1.2.7.2 0 .5-.1.7-.2.6-.4.9-1.2.5-1.8l-1.4-2.5h2.8c.7 0 1.4-.6 1.4-1.4 0-.8-.7-1.3-1.4-1.3Z"/>
  </g>
  <defs>
    <linearGradient id="b" x1="12.914" x2="40.256" y1="43.464" y2="10.878" gradientUnits="userSpaceOnUse">
      <stop stop-color="#686E73"/>
      <stop offset=".989" stop-color="#6A7075"/>
    </linearGradient>
    <linearGradient id="c" x1="47.5" x2="49.5" y1="38.5" y2="71.1" gradientUnits="userSpaceOnUse">
      <stop offset=".484" stop-color="#fff" stop-opacity="0"/>
      <stop offset="1" stop-color="#B3B2B2"/>
    </linearGradient>
    <clipPath id="a">
      <path fill="#fff" d="M0 0h100v100H0z"/>
    </clipPath>
    <filter id="d" width="85" height="46.101" x="11.5" y="30" color-interpolation-filters="sRGB" filterUnits="userSpaceOnUse">
      <feFlood flood-opacity="0" result="BackgroundImageFix"/>
      <feBlend in="SourceGraphic" in2="BackgroundImageFix" result="shape"/>
      <feGaussianBlur result="effect1_foregroundBlur_149_1456" stdDeviation="3.5"/>
    </filter>
  </defs>
</svg>

<svg width="100" height="100" viewBox="0 0 100 100" fill="none" xmlns="http://www.w3.org/2000/svg">
<g clip-path="url(#clip0_149_1456)">
<path fill-rule="evenodd" clip-rule="evenodd" d="M28.4427 13.5646C28.4427 9.69627 27.3268 6.05115 25.5415 2.92676C35.2069 4.16064 42.7878 11.8375 43.9187 21.5336C39.9745 23.6749 36.524 26.7068 33.9 30.3999H32.8C27.9 30.3999 23.4 32.6999 20.7 36.5999C16.6415 36.8434 12.8466 38.2729 9.68955 40.7278C7.57913 39.0479 5.78488 36.9738 4.41464 34.617C5.30733 34.7658 6.20001 34.8402 7.16708 34.8402C18.9207 34.8402 28.4427 25.3182 28.4427 13.5646Z" fill="url(#paint0_linear_149_1456)"/>
<path fill-rule="evenodd" clip-rule="evenodd" d="M81.3 42.9C79.4 31.6 69.4 23 57.7 23C48.6 23 40.4 28.1 36.4 36.1C35.2 35.6 34 35.4 32.8 35.4C28.6 35.4 25 37.9 23.6 41.6C23 41.5 22.5 41.5 21.9 41.5C17.8 41.5 14 43.1 11.2 46C8.5 48.8 7 52.4 7 56.2V56.4C7.1 60.5 8.7 64.2 11.6 66.9C14.3 69.6 18 71.1 21.9 71.1H77.6C85.5 71.1 92 64.7 92 56.8C92 50.2 87.5 44.5 81.3 42.9Z" fill="#999999"/>
<g opacity="0.6">
<path fill-rule="evenodd" clip-rule="evenodd" d="M81.3 42.9C79.4 31.6 69.4 23 57.7 23C48.6 23 40.4 28.1 36.4 36.1C35.2 35.6 34 35.4 32.8 35.4C28.6 35.4 25 37.9 23.6 41.6C23 41.5 22.5 41.5 21.9 41.5C17.8 41.5 14 43.1 11.2 46C8.5 48.8 7 52.4 7 56.2V56.4C7.1 60.5 8.7 64.2 11.6 66.9C14.3 69.6 18 71.1 21.9 71.1H77.6C85.5 71.1 92 64.7 92 56.8C92 50.2 87.5 44.5 81.3 42.9Z" fill="url(#paint1_linear_149_1456)" style="mix-blend-mode:multiply"/>
</g>
<path d="M54.7 83.5H51.9L53.3 81C53.7 80.4 53.5 79.5 52.8 79.2C52.1 78.8 51.3 79 50.9 79.7L49.5 82.1L48.1 79.7C47.7 79 46.9 78.8 46.3 79.2C45.9 79.4 45.7 79.7 45.6 80C45.5 80.3 45.6 80.7 45.7 81L47.1 83.4H44.4C43.6 83.5 43 84.1 43 84.8C43 85.5 43.6 86.2 44.4 86.2H47.2L45.8 88.6C45.6 88.9 45.6 89.3 45.7 89.6C45.8 89.9 46 90.2 46.3 90.4C46.9 90.8 47.8 90.5 48.1 89.9L49.5 87.5L50.9 90C51.1 90.4 51.6 90.7 52.1 90.7C52.3 90.7 52.6 90.6 52.8 90.5C53.4 90.1 53.7 89.3 53.3 88.7L51.9 86.2H54.7C55.4 86.2 56.1 85.6 56.1 84.8C56.1 84 55.4 83.5 54.7 83.5Z" fill="#00B8F1"/>
<path d="M82.7 83.5H79.9L81.3 81C81.7 80.4 81.5 79.5 80.8 79.2C80.1 78.8 79.3 79 78.9 79.7L77.5 82.1L76.1 79.7C75.7 79 74.9 78.8 74.3 79.2C73.9 79.4 73.7 79.7 73.6 80C73.5 80.3 73.6 80.7 73.7 81L75.1 83.4H72.4C71.6 83.5 71 84.1 71 84.8C71 85.5 71.6 86.2 72.4 86.2H75.2L73.8 88.6C73.6 88.9 73.6 89.3 73.7 89.6C73.8 89.9 74 90.2 74.3 90.4C74.9 90.8 75.8 90.5 76.1 89.9L77.5 87.5L78.9 90C79.1 90.4 79.6 90.7 80.1 90.7C80.3 90.7 80.6 90.6 80.8 90.5C81.4 90.1 81.7 89.3 81.3 88.7L79.9 86.2H82.7C83.4 86.2 84.1 85.6 84.1 84.8C84.1 84 83.4 83.5 82.7 83.5Z" fill="#00B8F1"/>
<path d="M68.7 92.5H65.9L67.3 90C67.7 89.4 67.5 88.5 66.8 88.2C66.1 87.8 65.3 88 64.9 88.7L63.5 91.1L62.1 88.7C61.7 88 60.9 87.8 60.3 88.2C59.9 88.4 59.7 88.7 59.6 89C59.5 89.3 59.6 89.7 59.7 90L61.1 92.4H58.4C57.6 92.5 57 93.1 57 93.8C57 94.5 57.6 95.2 58.4 95.2H61.2L59.8 97.6C59.6 97.9 59.6 98.3 59.7 98.6C59.8 98.9 60 99.2 60.3 99.4C60.9 99.8 61.8 99.5 62.1 98.9L63.5 96.5L64.9 99C65.1 99.4 65.6 99.7 66.1 99.7C66.3 99.7 66.6 99.6 66.8 99.5C67.4 99.1 67.7 98.3 67.3 97.7L65.9 95.2H68.7C69.4 95.2 70.1 94.6 70.1 93.8C70.1 93 69.4 92.5 68.7 92.5Z" fill="#00B8F1"/>
<path d="M40.7 92.5H37.9L39.3 90C39.7 89.4 39.5 88.5 38.8 88.2C38.1 87.8 37.3 88 36.9 88.7L35.5 91.1L34.1 88.7C33.7 88 32.9 87.8 32.3 88.2C31.9 88.4 31.7 88.7 31.6 89C31.5 89.3 31.6 89.7 31.7 90L33.1 92.4H30.4C29.6 92.5 29 93.1 29 93.8C29 94.5 29.6 95.2 30.4 95.2H33.2L31.8 97.6C31.6 97.9 31.6 98.3 31.7 98.6C31.8 98.9 32 99.2 32.3 99.4C32.9 99.8 33.8 99.5 34.1 98.9L35.5 96.5L36.9 99C37.1 99.4 37.6 99.7 38.1 99.7C38.3 99.7 38.6 99.6 38.8 99.5C39.4 99.1 39.7 98.3 39.3 97.7L37.9 95.2H40.7C41.4 95.2 42.1 94.6 42.1 93.8C42.1 93 41.4 92.5 40.7 92.5Z" fill="#00B8F1"/>
<path d="M26.7 83.5H23.9L25.3 81C25.7 80.4 25.5 79.5 24.8 79.2C24.1 78.8 23.3 79 22.9 79.7L21.5 82.1L20.1 79.7C19.7 79 18.9 78.8 18.3 79.2C17.9 79.4 17.7 79.7 17.6 80C17.5 80.3 17.6 80.7 17.7 81L19.1 83.4H16.4C15.6 83.5 15 84.1 15 84.8C15 85.5 15.6 86.2 16.4 86.2H19.2L17.8 88.6C17.6 88.9 17.6 89.3 17.7 89.6C17.8 89.9 18 90.2 18.3 90.4C18.9 90.8 19.8 90.5 20.1 89.9L21.5 87.5L22.9 90C23.1 90.4 23.6 90.7 24.1 90.7C24.3 90.7 24.6 90.6 24.8 90.5C25.4 90.1 25.7 89.3 25.3 88.7L23.9 86.2H26.7C27.4 86.2 28.1 85.6 28.1 84.8C28.1 84 27.4 83.5 26.7 83.5Z" fill="#00B8F1"/>
</g>
<defs>
<linearGradient id="paint0_linear_149_1456" x1="12.9138" y1="43.4636" x2="40.2563" y2="10.8781" gradientUnits="userSpaceOnUse">
<stop stop-color="#686E73"/>
<stop offset="0.9891" stop-color="#6A7075"/>
</linearGradient>
<linearGradient id="paint1_linear_149_1456" x1="47.5" y1="38.5" x2="49.5" y2="71.1" gradientUnits="userSpaceOnUse">
<stop offset="0.484375" stop-color="white" stop-opacity="0"/>
<stop offset="1" stop-color="#B3B2B2"/>
</linearGradient>
<clipPath id="clip0_149_1456">
<rect width="100" height="100" fill="white"/>
</clipPath>
</defs>
</svg>
